icon-svg/sydney-metro.svg

<svg xmlns="http://www.w3.org/2000/svg" viewBox="0 0 24 24"><path fill="#44739e" d="M12 3a9 9 0 1 0 9 9 9.007 9.007 0 0 0-9-9m5.242 14.024a.43.43 0 0 1-.465.439h-1.232a.43.43 0 0 1-.465-.439v-7.8l-2.189 7.8a.5.5 0 0 1-.5.439h-1.44a.506.506 0 0 1-.5-.439l-2.021-7.8v7.8a.43.43 0 0 1-.466.439H6.789a.43.43 0 0 1-.465-.439V6.539a.44.44 0 0 1 .465-.439h2.3a.54.54 0 0 1 .516.438 74 74 0 0 1 2.182 8.308 66 66 0 0 1 2.289-8.308.54.54 0 0 1 .517-.438h2.188a.44.44 0 0 1 .465.438ZM12 2a10 10 0 1 0 10 10A10.01 10.01 0 0 0 12 2m0 19.721A9.721 9.721 0 1 1 21.721 12 9.73 9.73 0 0 1 12 21.721m-2.938-.213"/></svg>

<?xml version="1.0" encoding="UTF-8"?>
<svg width="24px" fill="#44739e" height="24px" viewBox="0 0 24 24" version="1.1" xmlns="http://www.w3.org/2000/svg" xmlns:xlink="http://www.w3.org/1999/xlink">
            <path d="m 12,3 a 9,9 0 1 0 9,9 9.007,9.007 0 0 0 -9,-9 z m 5.242,14.024 a 0.431,0.431 0 0 1 -0.465,0.439 H 15.545 A 0.431,0.431 0 0 1 15.08,17.024 v -7.8 l -2.189,7.8 a 0.5,0.5 0 0 1 -0.5,0.439 h -1.44 a 0.506,0.506 0 0 1 -0.5,-0.439 L 8.43,9.224 v 7.8 A 0.432,0.432 0 0 1 7.964,17.463 H 6.789 A 0.431,0.431 0 0 1 6.324,17.024 V 6.539 A 0.44,0.44 0 0 1 6.789,6.1 h 2.3 a 0.539,0.539 0 0 1 0.516,0.438 74.173,74.173 0 0 1 2.182,8.308 65.736,65.736 0 0 1 2.289,-8.308 0.539,0.539 0 0 1 0.517,-0.438 h 2.188 a 0.44,0.44 0 0 1 0.465,0.438 z M 12,2 A 10,10 0 1 0 22,12 10.011,10.011 0 0 0 12,2 Z m 0,19.721 A 9.721,9.721 0 1 1 21.721,12 9.732,9.732 0 0 1 12,21.721 Z M 9.062,21.508 v 0 -10e-4 z"/>

</svg>
